X:4
T:Polska efter Jon Andersson
R:polska L1
H:efter Jon Andersson (1846-1924), L\"anserud, Norra Finnskoga
A:V\"armland
Z:id:hn-L1-4
M:3/4
K:D
a>g g<f f2|g>f f<e ef|g>f ed cB|AB/c/ d>A F[AD]|
a>g g<f f2|g>f f<e ef|g>f ed cB|AB/c/ d4:|
|:A>F Ad fa|a2 e3f|g>f ed cB|AB/c/ d>A F[AD]|
A>F Ad fa|a2 e3f|g>f ed cB|AB/c/ d4:|
<end>
<start>
